X:94
T:Teetotaller's, The
S:The Session: https://thesession.org/tunes/114#setting114
S:https://JamBuddy.live 2025
C:Traditional
R:reel
K:G
M:4/4
L:1/8
Q:120
|: G2 GF GABc| dBeB dBAc| BEED EFGA| BGAF GFED|
! G2 GF GABc| dBeB dBAc| BEED EFGA| BGAF G4:| ! |:
Beed e2ef| gfaf gfed| B^cde d2ef| gfaf gfed|
! Beed e2ef| gfaf gfed| BEED EFGA| BGAF G4:|

